X:8
T: This Land is Your Land
C: Woody Guthrie
M:4/4
L:1/8
K:G clef=treble 
z GAB| "C"c2 c2 z c/c/ GA | "G"B2 B2 z DGB | "D7"A2 A2 z A/A/ GA | "G"B2 B2 z G/G/ AB |
 "C"c2 c2 z c/c/ GA |"G" B2 B4 z2 | "D7"A A2 A F3/D/ EF | "G"G4||
W: This land is your land, and this land is my land
W:From California to the New York island
W:From the Redwood Forest to the Gulf Stream waters
W:This land was made for you and me
W:
W:As I went walking that ribbon of highway
W:And I saw above me that endless skyway
W:I saw below me that golden valley
W:This land was made for you and me
W:
W:I roamed and rambled, and I've followed my footsteps
W:To the sparkling sands of her diamond deserts
W:All around me, a voice was sounding
W:This land was made for you and me
W:
W:There was a big, high wall there that tried to stop me
W:A sign was painted said "Private Property"
W:But on the backside, it didn't say nothing
W:This land was made for you and me
W:
W:When the sun come shining, then I was strolling
W:And the wheat fields waving, and the dust clouds rolling
W:The voice was chanting as the fog was lifting
W:This land was made for you and me
W:
W:This land is your land, and this land is my land
W:From California to the New York island
W:From the Redwood Forest to the Gulf Stream waters
W:This land was made for you and me

